icons/jekyll-dark.svg

<svg width="256" height="256" viewBox="0 0 256 256" fill="none" xmlns="http://www.w3.org/2000/svg">
<path d="M196 0H60C26.8629 0 0 26.8629 0 60V196C0 229.137 26.8629 256 60 256H196C229.137 256 256 229.137 256 196V60C256 26.8629 229.137 0 196 0Z" fill="#282828"/>
<path opacity="0.3" d="M133.289 48.0301C133.215 48.3295 133.213 48.6512 133.276 48.9909C133.276 48.9909 134.294 55.7517 133.138 58.7604L83.98 186.58L83.9836 186.582C80.4752 195.97 85.1768 206.452 94.5518 210.058C103.927 213.663 114.44 209.032 118.126 199.713L118.131 199.715L167.289 71.8948C168.25 69.3944 173.732 64.5502 173.732 64.5502C174.007 64.3406 174.221 64.1001 174.366 63.8279L174.39 63.7784C174.416 63.7247 174.447 63.6736 174.468 63.6179C175.736 60.322 167.56 54.1096 156.207 49.7437C144.853 45.3773 134.621 44.5095 133.354 47.8054C133.332 47.8611 133.32 47.9196 133.304 47.9769L133.289 48.0301Z" fill="black"/>
<path d="M131.869 46.9438C131.794 47.2432 131.792 47.5649 131.855 47.9045C131.855 47.9045 132.874 54.6654 131.717 57.674L82.5585 185.493L82.563 185.495C79.055 194.883 83.7561 205.365 93.1312 208.971C102.505 212.576 113.019 207.946 116.706 198.626L116.71 198.628L165.869 70.8081C166.829 68.3076 172.312 63.4635 172.312 63.4635C172.587 63.2539 172.8 63.0138 172.945 62.7412L172.969 62.6916C172.995 62.6384 173.026 62.5868 173.047 62.5312C174.315 59.2353 166.139 53.0233 154.786 48.6569C143.432 44.2905 133.201 43.4228 131.933 46.7187C131.912 46.7744 131.9 46.8329 131.884 46.8901L131.869 46.9438Z" fill="url(#paint0_linear_0_1)"/>
<path d="M147.289 104.768L111.839 196.945L111.862 196.953C109.247 203.56 101.638 206.997 94.8882 204.401C88.1384 201.805 84.485 194.037 86.9712 187.38L109.623 128.481C109.623 128.481 112.452 123.918 118.007 120.671C123.561 117.425 128.142 118.11 134.31 115.368C140.478 112.627 147.289 104.768 147.289 104.768Z" fill="url(#paint1_linear_0_1)"/>
<path d="M151.07 58.3164C158.116 61.0266 164.406 61.7212 165.119 59.8679C165.832 58.0147 160.698 54.3153 153.651 51.6051C146.605 48.895 140.315 48.2003 139.602 50.0536C138.89 51.9069 144.024 55.6063 151.07 58.3164Z" fill="#333333"/>
<path opacity="0.3" d="M131.855 47.9042C131.855 47.9042 132.859 54.7036 131.717 57.6737L82.5585 185.493L82.563 185.495C79.055 194.883 83.7561 205.365 93.1312 208.971C94.7173 209.58 96.3804 209.966 98.0728 210.117C91.7532 205.363 89.0419 196.861 91.9413 189.102L91.9368 189.1L140.12 63.8162C140.12 63.8162 133.561 57.6578 131.855 47.9042Z" fill="white"/>
<path opacity="0.5" d="M116.028 131.783C116.815 131.783 117.453 131.145 117.453 130.359C117.453 129.572 116.815 128.934 116.028 128.934C115.242 128.934 114.604 129.572 114.604 130.359C114.604 131.145 115.242 131.783 116.028 131.783Z" fill="white"/>
<path opacity="0.5" d="M125.365 142.833C126.551 142.833 127.512 141.872 127.512 140.686C127.512 139.5 126.551 138.539 125.365 138.539C124.179 138.539 123.218 139.5 123.218 140.686C123.218 141.872 124.179 142.833 125.365 142.833Z" fill="white"/>
<path opacity="0.5" d="M111.112 156.996C113.336 156.996 115.14 155.192 115.14 152.968C115.14 150.743 113.336 148.94 111.112 148.94C108.887 148.94 107.084 150.743 107.084 152.968C107.084 155.192 108.887 156.996 111.112 156.996Z" fill="white"/>
<path opacity="0.5" d="M104.59 162.564C105.776 162.564 106.737 161.603 106.737 160.417C106.737 159.231 105.776 158.269 104.59 158.269C103.404 158.269 102.442 159.231 102.442 160.417C102.442 161.603 103.404 162.564 104.59 162.564Z" fill="white"/>
<path opacity="0.5" d="M113.143 177.771C113.93 177.771 114.568 177.134 114.568 176.347C114.568 175.56 113.93 174.923 113.143 174.923C112.357 174.923 111.719 175.56 111.719 176.347C111.719 177.134 112.357 177.771 113.143 177.771Z" fill="white"/>
<defs>
<linearGradient id="paint0_linear_0_1" x1="103.404" y1="120.909" x2="144.518" y2="136.721" gradientUnits="userSpaceOnUse">
<stop stop-color="#919191"/>
<stop offset="1" stop-color="white"/>
</linearGradient>
<linearGradient id="paint1_linear_0_1" x1="102.353" y1="147.379" x2="127.243" y2="156.951" gradientUnits="userSpaceOnUse">
<stop stop-color="#990000"/>
<stop offset="1" stop-color="#E80000"/>
</linearGradient>
</defs>
</svg>

<svg xmlns="http://www.w3.org/2000/svg" width="256" height="256" fill="none"><path fill="#282828" d="M196 0H60C26.863 0 0 26.863 0 60v136c0 33.137 26.863 60 60 60h136c33.137 0 60-26.863 60-60V60c0-33.137-26.863-60-60-60"/><path fill="#000" d="M133.289 48.03q-.11.45-.013.96s1.018 6.762-.138 9.77L83.98 186.58l.004.002c-3.509 9.388 1.193 19.87 10.568 23.476s19.888-1.026 23.574-10.345l.005.002 49.158-127.82c.961-2.5 6.443-7.345 6.443-7.345.275-.21.489-.45.634-.722l.024-.05c.026-.053.057-.104.078-.16 1.268-3.296-6.908-9.508-18.261-13.874-11.354-4.367-21.586-5.234-22.853-1.939-.022.056-.034.115-.05.172z" opacity=".3"/><path fill="url(#paint0_linear_0_1)" d="M131.869 46.944q-.11.45-.014.96s1.019 6.761-.138 9.77L82.558 185.493l.005.002c-3.508 9.388 1.193 19.87 10.568 23.476s19.888-1.025 23.575-10.345l.004.002 49.159-127.82c.96-2.5 6.443-7.345 6.443-7.345q.414-.315.633-.722l.024-.05c.026-.053.057-.104.078-.16 1.268-3.296-6.908-9.508-18.261-13.874-11.354-4.366-21.585-5.234-22.853-1.938-.021.055-.033.114-.049.171z"/><path fill="url(#paint1_linear_0_1)" d="m147.289 104.768-35.45 92.177.023.008c-2.615 6.607-10.224 10.044-16.974 7.448s-10.403-10.364-7.917-17.021l22.652-58.899s2.829-4.563 8.384-7.81 10.135-2.561 16.303-5.303 12.979-10.6 12.979-10.6"/><path fill="#333" d="M151.07 58.316c7.046 2.71 13.336 3.405 14.049 1.552s-4.421-5.553-11.468-8.263-13.336-3.405-14.049-1.551 4.422 5.552 11.468 8.262"/><path fill="#fff" d="M131.855 47.904s1.004 6.8-.138 9.77L82.558 185.493l.005.002c-3.508 9.388 1.193 19.87 10.568 23.476 1.586.609 3.25.995 4.942 1.146-6.32-4.754-9.031-13.256-6.132-21.015l-.004-.002L140.12 63.816s-6.559-6.158-8.265-15.912" opacity=".3"/><path fill="#fff" d="M116.028 131.783a1.425 1.425 0 1 0 0-2.85 1.425 1.425 0 0 0 0 2.85m9.337 11.05a2.147 2.147 0 1 0 0-4.293 2.147 2.147 0 0 0 0 4.293m-14.253 14.163a4.029 4.029 0 1 0-.002-8.058 4.029 4.029 0 0 0 .002 8.058m-6.522 5.568a2.147 2.147 0 1 0 0-4.293 2.147 2.147 0 0 0 0 4.293m8.553 15.207a1.424 1.424 0 1 0 .002-2.848 1.424 1.424 0 0 0-.002 2.848" opacity=".5"/><defs><linearGradient id="paint0_linear_0_1" x1="103.404" x2="144.518" y1="120.909" y2="136.721" gradientUnits="userSpaceOnUse"><stop stop-color="#919191"/><stop offset="1" stop-color="#fff"/></linearGradient><linearGradient id="paint1_linear_0_1" x1="102.353" x2="127.243" y1="147.379" y2="156.951" gradientUnits="userSpaceOnUse"><stop stop-color="#900"/><stop offset="1" stop-color="#E80000"/></linearGradient></defs></svg>
